X:WFS 14-03 24
T:Maggie in the Wood
M:4/4
K:G
P:A
{BA}| G2D2 G3A B2d2 e2ge |1,3 d2B2 BAGA B2A2 A2 :|2,4 d2B2 A2BA G4 G2 :|
P:B
ef| g2f2 e2d2 e2f2 g3e |1,3 d2B2 BAGA B2A2 A2 :|2 d2B2 A2BA G4 G2 || [P:(A2)] :|

